X: 35482
T: Royal Scotch Galop
R: jig
M: 6/8
K: Gmajor
D|G2G gfe|ded BAG|BAG c2B|ABA edD|
G2G gfe|fgf ^d^cB|eeB e2e|ddA FED|
G3 Bcd|eed eed|edc gfe|dcB BA2|
G3 Bcd|eed edd|ed^c d2B|AGF G2||
B|e2e gfe|^deB c2B|edc cBA|AGF F2B|
e2e gfe|fgf ^d^cB|eeB e2e|ddA FED|
G3 Bcd|eed eed|edc gfe|dcB BAD|
G3 Bcd|eed eed|ed^c d2B|AGF G2||

